assets/img/braze_icons/atom-01.svg

<svg fill="none" height="24" viewBox="0 0 24 24" width="24" xmlns="http://www.w3.org/2000/svg"><g fill="#801ed7"><path d="m12 10.5c-.8284 0-1.5.6716-1.5 1.5s.6716 1.5 1.5 1.5 1.5-.6716 1.5-1.5-.6716-1.5-1.5-1.5z"/><path clip-rule="evenodd" d="m15.1192 2.57528c-.998.41095-2.0512.97941-3.1193 1.68534-1.068-.7059-2.12118-1.27433-3.11918-1.68527-1.16012-.4777-2.29329-.76228-3.31553-.76995-1.02718-.0077-2.02313.26776-2.75761 1.00224s-1.00994 1.73043-1.00224 2.75761c.00767 1.02224.29226 2.15541.76995 3.31553.41094.998.97938 2.05122 1.68528 3.11922-.70591 1.068-1.27434 2.1212-1.68529 3.1192-.4777 1.1601-.76228 2.2933-.76995 3.3155-.0077 1.0272.26776 2.0232 1.00224 2.7576.73448.7345 1.73043 1.01 2.75761 1.0023 1.02224-.0077 2.15541-.2923 3.31553-.77.998-.4109 2.05119-.9793 3.11919-1.6852 1.0681.7059 2.1213 1.2744 3.1193 1.6853 1.1601.4777 2.2933.7623 3.3155.77 1.0272.0077 2.0232-.2678 2.7577-1.0023.7344-.7345 1.0099-1.7304 1.0022-2.7576-.0077-1.0222-.2923-2.1554-.77-3.3155-.4109-.998-.9794-2.0513-1.6853-3.1193.7059-1.068 1.2744-2.12127 1.6853-3.11929.4777-1.16012.7623-2.29329.77-3.31553.0077-1.02718-.2678-2.02313-1.0023-2.75761-.7344-.73448-1.7304-1.00994-2.7576-1.00224-1.0222.00767-2.1554.29225-3.3155.76995zm.7615 1.84936c-.677.27877-1.3969.64746-2.1402 1.09966.845.66897 1.6856 1.4166 2.5021 2.23309.8165.81646 1.5641 1.65706 2.233 2.50201.4522-.74329.8209-1.46317 1.0997-2.14019.418-1.01522.6142-1.88654.6193-2.56903.0051-.67754-.1746-1.08656-.4165-1.32839-.2418-.24184-.6508-.4216-1.3284-.41651-.6825.00512-1.5538.20133-2.569.61936zm-11.45605 3.69464c.27876.67699.64743 1.39685 1.0996 2.14012.66897-.84498 1.41659-1.6856 2.23307-2.50208.81646-.81646 1.65706-1.56406 2.50208-2.23301-.74334-.45217-1.46319-.82084-2.14018-1.0996-1.01522-.41803-1.88654-.61424-2.56903-.61936-.67754-.00509-1.08656.17467-1.32839.41651-.24184.24183-.42159.65085-.41651 1.32839.00512.68249.20133 1.55381.61936 2.56903zm4.74688 1.05225c-.93177.93177-1.75709 1.88657-2.46412 2.82847.70703.9419 1.53235 1.8967 2.46413 2.8285.93176.9317 1.88646 1.757 2.82836 2.464.9419-.707 1.8967-1.5323 2.8285-2.4641.9317-.9318 1.757-1.8865 2.4641-2.8284-.7071-.9419-1.5323-1.8966-2.4641-2.8284-.9318-.93178-1.8866-1.7571-2.8285-2.46413-.9419.70701-1.8966 1.53231-2.82837 2.46406zm-4.74689 6.70917c.27876-.677.64743-1.3969 1.09961-2.1402.66897.8451 1.4166 1.6857 2.23308 2.5022.81645.8164 1.65705 1.564 2.50207 2.233-.74334.4521-1.4632.8208-2.14019 1.0996-1.01522.418-1.88654.6142-2.56903.6193-.67754.0051-1.08656-.1746-1.32839-.4165-.24184-.2418-.42159-.6508-.41651-1.3284.00512-.6825.20133-1.5538.61936-2.569zm11.45606 3.6947c-.677-.2788-1.3969-.6475-2.1402-1.0997.845-.669 1.6856-1.4166 2.5021-2.2331s1.5641-1.6571 2.233-2.5021c.4522.7434.8209 1.4633 1.0997 2.1403.418 1.0152.6142 1.8865.6194 2.569.005.6775-.1747 1.0866-.4166 1.3284-.2418.2418-.6508.4216-1.3284.4165-.6824-.0051-1.5538-.2013-2.569-.6193z" fill-rule="evenodd"/></g></svg>

<svg width="24" height="24" viewBox="0 0 24 24" fill="none" xmlns="http://www.w3.org/2000/svg">
<path d="M12 10.5C11.1716 10.5 10.5 11.1716 10.5 12C10.5 12.8284 11.1716 13.5 12 13.5C12.8284 13.5 13.5 12.8284 13.5 12C13.5 11.1716 12.8284 10.5 12 10.5Z" fill="#801ED7"/>
<path fill-rule="evenodd" clip-rule="evenodd" d="M15.1192 2.57528C14.1212 2.98623 13.068 3.55469 11.9999 4.26062C10.9319 3.55472 9.87872 2.98629 8.88072 2.57535C7.7206 2.09765 6.58743 1.81307 5.56519 1.8054C4.53801 1.7977 3.54206 2.07316 2.80758 2.80764C2.0731 3.54212 1.79764 4.53807 1.80534 5.56525C1.81301 6.58749 2.0976 7.72066 2.57529 8.88078C2.98623 9.87878 3.55467 10.932 4.26057 12C3.55466 13.068 2.98623 14.1212 2.57528 15.1192C2.09758 16.2793 1.813 17.4125 1.80533 18.4347C1.79763 19.4619 2.07309 20.4579 2.80757 21.1923C3.54205 21.9268 4.538 22.2023 5.56518 22.1946C6.58742 22.1869 7.72059 21.9023 8.88071 21.4246C9.87871 21.0137 10.9319 20.4453 11.9999 19.7394C13.068 20.4453 14.1212 21.0138 15.1192 21.4247C16.2793 21.9024 17.4125 22.187 18.4347 22.1947C19.4619 22.2024 20.4579 21.9269 21.1924 21.1924C21.9268 20.4579 22.2023 19.462 22.1946 18.4348C22.1869 17.4126 21.9023 16.2794 21.4246 15.1193C21.0137 14.1213 20.4452 13.068 19.7393 12C20.4452 10.932 21.0137 9.87873 21.4246 8.88071C21.9023 7.72059 22.1869 6.58742 22.1946 5.56518C22.2023 4.538 21.9268 3.54205 21.1923 2.80757C20.4579 2.07309 19.4619 1.79763 18.4347 1.80533C17.4125 1.813 16.2793 2.09758 15.1192 2.57528ZM15.8807 4.42464C15.2037 4.70341 14.4838 5.0721 13.7405 5.5243C14.5855 6.19327 15.4261 6.9409 16.2426 7.75739C17.0591 8.57385 17.8067 9.41445 18.4756 10.2594C18.9278 9.51611 19.2965 8.79623 19.5753 8.11921C19.9933 7.10399 20.1895 6.23267 20.1946 5.55018C20.1997 4.87264 20.02 4.46362 19.7781 4.22179C19.5363 3.97995 19.1273 3.80019 18.4497 3.80528C17.7672 3.8104 16.8959 4.00661 15.8807 4.42464ZM4.42465 8.11928C4.70341 8.79627 5.07208 9.51613 5.52425 10.2594C6.19322 9.41442 6.94084 8.5738 7.75732 7.75732C8.57378 6.94086 9.41438 6.19326 10.2594 5.52431C9.51606 5.07214 8.79621 4.70347 8.11922 4.42471C7.104 4.00668 6.23268 3.81047 5.55019 3.80535C4.87265 3.80026 4.46363 3.98002 4.2218 4.22186C3.97996 4.46369 3.80021 4.87271 3.80529 5.55025C3.81041 6.23274 4.00662 7.10406 4.42465 8.11928ZM9.17153 9.17153C8.23976 10.1033 7.41444 11.0581 6.70741 12C7.41444 12.9419 8.23976 13.8967 9.17154 14.8285C10.1033 15.7602 11.058 16.5855 11.9999 17.2925C12.9418 16.5855 13.8966 15.7602 14.8284 14.8284C15.7601 13.8966 16.5854 12.9419 17.2925 12C16.5854 11.0581 15.7602 10.1034 14.8284 9.1716C13.8966 8.23982 12.9418 7.4145 11.9999 6.70747C11.058 7.41448 10.1033 8.23978 9.17153 9.17153ZM4.42464 15.8807C4.7034 15.2037 5.07207 14.4838 5.52425 13.7405C6.19322 14.5856 6.94085 15.4262 7.75733 16.2427C8.57378 17.0591 9.41438 17.8067 10.2594 18.4757C9.51606 18.9278 8.7962 19.2965 8.11921 19.5753C7.10399 19.9933 6.23267 20.1895 5.55018 20.1946C4.87264 20.1997 4.46362 20.02 4.22179 19.7781C3.97995 19.5363 3.8002 19.1273 3.80528 18.4497C3.8104 17.7672 4.00661 16.8959 4.42464 15.8807ZM15.8807 19.5754C15.2037 19.2966 14.4838 18.9279 13.7405 18.4757C14.5855 17.8067 15.4261 17.0591 16.2426 16.2426C17.0591 15.4261 17.8067 14.5855 18.4756 13.7405C18.9278 14.4839 19.2965 15.2038 19.5753 15.8808C19.9933 16.896 20.1895 17.7673 20.1947 18.4498C20.1997 19.1273 20.02 19.5364 19.7781 19.7782C19.5363 20.02 19.1273 20.1998 18.4497 20.1947C17.7673 20.1896 16.8959 19.9934 15.8807 19.5754Z" fill="#801ED7"/>
</svg>
